X: 628
T: Young Catherine
B: O'Neill's 628
Z: 1999 by John Chambers <jc@eddie.mit.edu> http://eddie.mit.edu/~jc/music/abc/
N: "Moderate"
M: C
L: 1/8
K:Am
(A>G) \
| E2(A>B) A3B | c2(B>A) A2Bc | d3e (dB)(A>B) | G3A B2(A>G) |
| E2(A>B) A3B | c2(B>c) A2(a>g) | e2(dc/B/) (c>dB>c) | A4 e2 ||
|| (A>B) \
| cde^f g3a | (ge)(d>e) g2(d>c) | B2(g>e) (dB)(A>B) | G3A B2AG |
| c2B>A A3E | ABcd (c/d/e) dc | (d>e^ga) (=ge)(d>B) | A4 e2 |]


